X:1
T:Title
%%score { 1 | 2 }
L:1/8
M:4/4
K:G
V:1 treble nm="Grand Piano"
V:2 bass 
V:1
 z4 z2[Q:1/4=106] DG | B2 B2 A2 G2 | E2 G2 D4 | G3 G G2 B2 |[M:7/8] [GB]- [GB]3 [FA]3 |[M:1/4] GA | %6
[M:4/4] B2 d2 B2 [DA]2 | [EG]2 [CE]2 [EG]4 | D3 B B2 G2 | A4 G4 | d2 d2 d2 B2 | e2 d2 B4 | %12
 G2 B2 d2 d2 | e2 d2 B4 | d3 B A2 G2 | [DB]2 [DG]2 E4 | D3 B B2 G2 |[M:7/8] A- A3 [B,DG]3 |] %18
V:2
 z4 z2 [G,B,][G,B,D] | [G,B,D]2 [G,B,D]2 [G,C]2 [G,B,]2 | [C,G,C]2 [E,G,C]2 [G,B,]4 | %3
 [G,B,D]3 [G,B,D] [G,B,D]2 [G,DG]2 |[M:7/8][K:bass] [D,D]- [D,D]3 [D,D]3 | %5
[M:1/4] [G,B,][K:treble][G,CG] |[M:4/4] [G,DG]2 [G,B,G]2[K:bass] [G,D]2 [B,,G,]2 | %7
 [C,G,]2 [C,G,]2 [C,G,]4 | [D,G,B,]3 [D,G,D] [D,G,D]2 [D,B,D]2 | [D,CD]4[K:treble] [G,B,D]4 | %10
 [G,B,G]2 [G,B,G]2 [G,B,G]2 [G,DG]2 | [G,CG]2 [G,B,G]2 [G,DG]4 | %12
 [G,B,]2 [G,DG]2 [G,B,G]2 [G,B,G]2 | [G,CG]2 [G,B,G]2 [G,DG]4 | [G,B,D]3 [G,B,D] [G,CD]2 [G,B,D]2 | %15
 [G,,G,]2 [B,,G,]2 [C,G,C]4 | [D,G,B,]3 [D,G,D] [D,F,D]2 [D,B,D]2 |[M:7/8] [D,CD]- [D,CD]3 G,,3 |] %18

